storage/app/icons/phosphoricons/light/police-car-light.svg

<svg xmlns="http://www.w3.org/2000/svg" fill="currentColor" viewBox="0 0 256 256"><path d="M240 106h-12.52l-28-48.95a14 14 0 0 0-12.15-7H68.64a14 14 0 0 0-12.15 7l-28 49H16a6 6 0 0 0 0 12h10v82a14 14 0 0 0 14 14h24a14 14 0 0 0 14-14V182h100v18a14 14 0 0 0 14 14h24a14 14 0 0 0 14-14v-82h10a6 6 0 0 0 0-12M66.91 63a2 2 0 0 1 1.73-1h118.72a2 2 0 0 1 1.73 1l24.57 43H42.34ZM66 200a2 2 0 0 1-2 2H40a2 2 0 0 1-2-2v-18h28Zm150 2h-24a2 2 0 0 1-2-2v-18h28v18a2 2 0 0 1-2 2m2-32H38v-52h180ZM58 144a6 6 0 0 1 6-6h16a6 6 0 0 1 0 12H64a6 6 0 0 1-6-6m112 0a6 6 0 0 1 6-6h16a6 6 0 0 1 0 12h-16a6 6 0 0 1-6-6M98 24a6 6 0 0 1 6-6h48a6 6 0 0 1 0 12h-48a6 6 0 0 1-6-6"/></svg>

<svg xmlns="http://www.w3.org/2000/svg" viewBox="0 0 256 256" fill="currentColor"><path d="M240,106H227.48l-28-48.95a14,14,0,0,0-12.15-7H68.64a14,14,0,0,0-12.15,7l-28,49H16a6,6,0,0,0,0,12H26v82a14,14,0,0,0,14,14H64a14,14,0,0,0,14-14V182H178v18a14,14,0,0,0,14,14h24a14,14,0,0,0,14-14V118h10a6,6,0,0,0,0-12ZM66.91,63a2,2,0,0,1,1.73-1H187.36a2,2,0,0,1,1.73,1l24.57,43H42.34ZM66,200a2,2,0,0,1-2,2H40a2,2,0,0,1-2-2V182H66Zm150,2H192a2,2,0,0,1-2-2V182h28v18A2,2,0,0,1,216,202Zm2-32H38V118H218ZM58,144a6,6,0,0,1,6-6H80a6,6,0,0,1,0,12H64A6,6,0,0,1,58,144Zm112,0a6,6,0,0,1,6-6h16a6,6,0,0,1,0,12H176A6,6,0,0,1,170,144ZM98,24a6,6,0,0,1,6-6h48a6,6,0,0,1,0,12H104A6,6,0,0,1,98,24Z"/></svg>
